icons/ears_nose_and_throat.svg

<svg width="48" height="48" viewBox="0 0 48 48" fill="none" xmlns="http://www.w3.org/2000/svg">
<path fill-rule="evenodd" clip-rule="evenodd" d="M27.2625 21.3246L27.2606 21.3267C26.8891 21.7353 26.9187 22.3684 27.3273 22.7399C27.733 23.1088 28.3593 23.0817 28.7318 22.6815L28.7413 22.672C28.7542 22.6594 28.779 22.636 28.8153 22.6051C28.8882 22.5429 29.0043 22.4535 29.1594 22.3625C29.469 22.1809 29.9208 22 30.5 22C31.0949 22 32 22.4892 32 24.05C32 25.5171 31.3651 26.4916 30.6407 27.1192C30.2709 27.4395 29.8776 27.6679 29.5376 27.8138C29.3681 27.8865 29.2191 27.9356 29.101 27.9654C29.0423 27.9802 28.9949 27.9894 28.9594 27.9946C28.9274 27.9993 28.9112 27.9999 28.9091 28C28.3568 28 27.9091 28.4477 27.9091 29C27.9091 29.5523 28.3568 30 28.9091 30C29.3262 30 29.8374 29.8614 30.3261 29.6518C30.8383 29.4321 31.4109 29.098 31.9502 28.6308C33.044 27.6834 34 26.1829 34 24.05C34 21.5108 32.3216 20 30.5 20C29.4883 20 28.6901 20.3191 28.1474 20.6375C27.8764 20.7965 27.6657 20.9571 27.5185 21.0824C27.4447 21.1453 27.3861 21.1999 27.3431 21.242C27.3215 21.2631 27.3038 21.2811 27.29 21.2954L27.2721 21.3143L27.2654 21.3215L27.2625 21.3246ZM28 22C27.2601 21.3273 27.2606 21.3267 27.2606 21.3267L28 22Z" fill="black"/>
<path fill-rule="evenodd" clip-rule="evenodd" d="M6 39C6 40.6569 7.34315 42 9 42H39C40.6569 42 42 40.6569 42 39V9C42 7.34315 40.6569 6 39 6H9C7.34315 6 6 7.34315 6 9V39ZM40 9C40 8.44771 39.5523 8 39 8H9C8.44771 8 8 8.44772 8 9V39C8 39.5523 8.44772 40 9 40H19V36H17C14.6 36 14 34 14 33V30C14 30 11.3138 29.6866 11.1997 29.6866C10.8523 29.6349 10.5377 29.466 10.3166 29.2123C10.0955 28.9586 9.98345 28.6382 10.002 28.3125C10.0863 27.8221 10.2599 27.3486 10.5153 26.912L11.1997 25.3001C11.6845 24.1902 12.1693 23.0804 12.6255 21.9441C12.6255 21.9441 12.9107 19.3016 13.1674 18.4032C13.9628 15.9864 15.5701 13.868 17.7552 12.3566C19.9402 10.8451 22.5889 10.0195 25.3155 10C27.9541 9.99559 30.5282 10.7551 32.6782 12.1724C34.8282 13.5898 36.4467 15.5941 37.3074 17.9054C38.1681 20.2166 38.2281 22.7193 37.479 25.0637C37.0293 26.4709 36.2551 27.7856 35.2581 28.9372C33.998 30.3926 33 32.1401 33 34.0652V40H39C39.5523 40 40 39.5523 40 39V9ZM29.2223 26.0847C27.5085 27.3569 26.5814 28.0451 26.5814 30.65V40H31V34.0652C31 31.4441 32.3486 29.2422 33.7461 27.6281C34.5883 26.6553 35.2163 25.574 35.5739 24.4549C36.1863 22.5383 36.1379 20.4957 35.4331 18.6033C34.7274 16.7083 33.3897 15.0369 31.5774 13.8423C29.765 12.6475 27.5788 11.9973 25.3244 12C22.9901 12.0178 20.7371 12.7258 18.8929 14.0014C17.0625 15.2675 15.7394 17.0189 15.0814 18.9852C15.0011 19.2885 14.8868 19.9965 14.7826 20.7757C14.7327 21.1486 14.6903 21.4959 14.6604 21.7505C14.6455 21.8775 14.6338 21.9807 14.6258 22.0517L14.6168 22.1327L14.6141 22.1577L14.614 22.1588C14.5943 22.3409 14.5497 22.5194 14.4815 22.6894C14.014 23.8536 13.5191 24.9865 13.038 26.0881L13.0366 26.0911L12.3562 27.6937C12.342 27.7271 12.3269 27.7602 12.3109 27.7929C12.4897 27.813 12.6806 27.8347 12.8696 27.8562L13.2293 27.8975C14.0101 25.8102 16.7281 23 20.5 23C22.2112 23 23.3169 23.7795 24.1889 24.3943C24.7567 24.7946 25.2254 25.125 25.6977 25.125C26.6187 25.125 27.3565 24.8376 27.9146 24.4822C28.4902 24.1155 29.3526 24.2052 29.6578 24.8157C29.8565 25.2131 29.7455 25.6958 29.389 25.9609L29.2223 26.0847ZM19 34C20.1046 34 21 34.8954 21 36V40H24V35.5C24 33.673 22.9313 31.9832 21.1507 31.5739C19.6057 31.2187 17.675 31.0147 16 31.5604V33C16 33.0636 16.0115 33.1912 16.0543 33.3412C16.0963 33.4884 16.156 33.6133 16.2231 33.7064C16.2849 33.7922 16.3522 33.8514 16.4357 33.8944C16.5176 33.9367 16.6855 34 17 34H19ZM15.9597 29.5993C18.4011 28.7652 21.0278 29.1697 22.5916 29.5646C23.2776 29.7379 23.965 29.2022 23.5958 28.5987C22.8254 27.339 21.0404 26.5 19 26.5C16.8635 26.5 15.4831 27.4132 14.7253 28.1358C15.3553 28.3807 15.8239 28.9326 15.9597 29.5993Z" fill="black"/>
</svg>

<svg
  xmlns="http://www.w3.org/2000/svg"
  width="24"
  height="24"
  viewBox="0 0 24 24"
  fill="none"
  stroke="currentColor"
  stroke-width="2"
  stroke-linecap="round"
  stroke-linejoin="round"
>
  <path
    fill-rule="evenodd"
    d="m27.263 21.325-.002.002a1 1 0 0 0 1.47 1.354l.01-.009.074-.067A2.63 2.63 0 0 1 30.5 22c.595 0 1.5.49 1.5 2.05 0 1.467-.635 2.442-1.36 3.07-.37.32-.762.548-1.102.694-.17.073-.319.122-.437.151a2 2 0 0 1-.142.03l-.05.005a1 1 0 1 0 0 2c.417 0 .928-.139 1.417-.348a6.3 6.3 0 0 0 1.624-1.021c1.094-.948 2.05-2.448 2.05-4.581 0-2.54-1.678-4.05-3.5-4.05a4.63 4.63 0 0 0-2.982 1.082 4 4 0 0 0-.228.213l-.018.02-.007.006zM28 22l-.74-.673z"
    clip-rule="evenodd"
  />
  <path
    fill-rule="evenodd"
    d="M6 39a3 3 0 0 0 3 3h30a3 3 0 0 0 3-3V9a3 3 0 0 0-3-3H9a3 3 0 0 0-3 3zM40 9a1 1 0 0 0-1-1H9a1 1 0 0 0-1 1v30a1 1 0 0 0 1 1h10v-4h-2c-2.4 0-3-2-3-3v-3s-2.686-.313-2.8-.313a1.45 1.45 0 0 1-.883-.475 1.26 1.26 0 0 1-.315-.9c.084-.49.258-.963.513-1.4L11.2 25.3c.485-1.11.97-2.22 1.426-3.356 0 0 .285-2.642.541-3.54.796-2.418 2.403-4.536 4.588-6.047S22.59 10.02 25.315 10c2.64-.004 5.213.755 7.363 2.172s3.769 3.422 4.63 5.733c.86 2.312.92 4.814.171 7.159-.45 1.407-1.224 2.722-2.22 3.873C33.997 30.393 33 32.14 33 34.065V40h6a1 1 0 0 0 1-1zM29.222 26.085c-1.713 1.272-2.64 1.96-2.64 4.565V40H31v-5.935c0-2.62 1.349-4.823 2.746-6.437.842-.973 1.47-2.054 1.828-3.173a8.9 8.9 0 0 0-.14-5.852c-.707-1.895-2.044-3.566-3.857-4.76-1.812-1.195-3.998-1.846-6.253-1.843-2.334.018-4.587.726-6.431 2.001-1.83 1.267-3.154 3.018-3.812 4.984-.08.303-.194 1.012-.298 1.79a62 62 0 0 0-.157 1.277l-.01.08-.002.026q-.03.275-.133.531c-.467 1.165-.962 2.297-1.443 3.4l-.001.002-.68 1.603-.046.099.559.063.36.041C14.01 25.81 16.727 23 20.5 23c1.711 0 2.817.78 3.689 1.394.568.4 1.036.731 1.509.731.92 0 1.659-.287 2.217-.643.575-.366 1.438-.277 1.743.334a.915.915 0 0 1-.269 1.145zM19 34a2 2 0 0 1 2 2v4h3v-4.5c0-1.827-1.069-3.517-2.85-3.926-1.544-.355-3.475-.56-5.15-.014V33c0 .064.012.191.054.341.042.147.102.272.17.365.06.086.128.145.212.188.082.043.25.106.564.106zm-3.04-4.4c2.441-.835 5.068-.43 6.632-.035.686.173 1.373-.363 1.004-.966-.77-1.26-2.556-2.099-4.596-2.099-2.137 0-3.517.913-4.275 1.636.63.245 1.099.797 1.235 1.463"
    clip-rule="evenodd"
  />
</svg>
